message-reply-outline.svg

<svg fill="currentColor" viewBox="0 0 24 24"><path d="M20 2H4c-1.1 0-2 .9-2 2v12c0 1.1.9 2 2 2h14l4 4V4c0-1.1-.9-2-2-2m0 15.2L18.8 16H4V4h16z"/></svg>

<svg  viewBox="0 0 24 24" fill="currentColor"><path  d="M20 2H4C2.9 2 2 2.9 2 4V16C2 17.1 2.9 18 4 18H18L22 22V4C22 2.9 21.1 2 20 2M20 17.2L18.8 16H4V4H20V17.2Z"/></svg>
